X: 3177
T: Bedford Cross
R: slide
M: 12/8
K: Adorian
|:e2e ede f2e d2f|efd edB A2A ABd|
e2e ede f2e d2f|efd edB ABA d3:|
|:a2f ede f2e d2f|efd edB A2A ABd|
[1 a2f ede f2e d2f|efd edB ABA d3:|
[2 e2e ede f2e d2f|efd edB ABA d3||

